components/icon/svg/24/ticket_ticket-discount.svg

<?xml version="1.0" encoding="UTF-8"?>
<svg width="24px" height="24px" viewBox="0 0 24 24" version="1.1" xmlns="http://www.w3.org/2000/svg" xmlns:xlink="http://www.w3.org/1999/xlink">
    <!-- Generator: Sketch 64 (93537) - https://sketch.com -->
    <title>ic-db_ticket_ticket-discount_24</title>
    <desc>Created with Sketch.</desc>
    <g id="Symbols:Icon" stroke="none" stroke-width="1" fill="none" fill-rule="evenodd">
        <g id="24dp-Icon/Ticket/Ticket-Discount" fill="#282D37">
            <path d="M2,18.9688 C2,20.625 3.3125,22 4.9687,22 L12.9687,22 C14.625,22 15.9687,20.625 15.9687,18.9688 L15.9687,17.0312 C15.9687,16.5 15.5,16 14.9687,16 C14.4062,16 14,16.5 13.9687,17.0312 L13.9687,18.9688 C13.9687,19.5312 13.5312,20 12.9687,20 L4.9687,20 C4.4375,20 4,19.5312 4,18.9688 L4,5.0312 C4,4.4688 4.4375,4.0312 4.9687,4.0312 L8,4.0312 C8.5312,4 8.9687,3.5938 8.9687,3.0312 C8.9687,2.4688 8.5312,2.0625 8,2.0312 L4.9687,2.0312 C3.3125,2.0312 2,3.375 2,5.0312 L2,18.9688 Z M5,17 C5,17.5312 5.4375,18 6,18 C6.5625,18 7,17.5312 7,17 C7,16.4375 6.5625,16 6,16 C5.4375,16 5,16.4375 5,17 Z M8,17 C8,17.5312 8.4688,18 9,18 C9.5625,18 10,17.5312 10,17 C10,16.4375 9.5625,16 9,16 C8.4688,16 8,16.4375 8,17 Z M9.0625,10.2188 C9.125,10.4688 9.3437,10.7188 9.625,10.8125 L10.2812,11.0625 C10.625,11.1875 10.875,11.5312 10.9062,11.9062 L10.9375,12.625 C10.9375,12.9062 11.0937,13.1875 11.3125,13.3438 C11.5625,13.5 11.8437,13.5625 12.125,13.4688 L12.8125,13.2812 C13.1875,13.1875 13.5625,13.3438 13.8125,13.625 L14.25,14.1875 C14.4375,14.4062 14.7187,14.5312 15,14.5312 C15.2812,14.5312 15.5625,14.4062 15.7187,14.1875 L16.1875,13.625 C16.4375,13.3438 16.8125,13.1875 17.1875,13.2812 L17.875,13.4688 C18.1562,13.5625 18.4687,13.5 18.6562,13.3438 C18.9062,13.1875 19.0312,12.9062 19.0625,12.625 L19.125,11.9062 C19.125,11.5312 19.375,11.1875 19.7187,11.0625 L20.375,10.8125 C20.6562,10.7188 20.8437,10.4688 20.9375,10.2188 C21.0312,9.9375 21,9.6562 20.8437,9.4062 L20.4687,8.8125 C20.25,8.4688 20.25,8.0625 20.4687,7.7812 L20.8437,7.1562 C21,6.9375 21.0312,6.625 20.9375,6.3438 C20.8437,6.0938 20.6562,5.8438 20.375,5.75 L19.7187,5.5 C19.375,5.3438 19.125,5.0312 19.125,4.6562 L19.0625,3.9375 C19.0312,3.6562 18.9062,3.375 18.6562,3.2188 C18.4687,3.0625 18.1562,3 17.875,3.0625 L17.1875,3.25 C16.8125,3.3438 16.4375,3.25 16.1875,2.9375 L15.7187,2.375 C15.5625,2.1562 15.2812,2 15,2 C14.7187,2 14.4375,2.1562 14.25,2.375 L13.8125,2.9375 C13.5625,3.25 13.1875,3.3438 12.8125,3.25 L12.125,3.0625 C11.8437,3 11.5625,3.0625 11.3125,3.2188 C11.0937,3.375 10.9375,3.6562 10.9375,3.9375 L10.9062,4.6562 C10.875,5.0312 10.625,5.3438 10.2812,5.5 L9.625,5.75 C9.3437,5.8438 9.125,6.0938 9.0625,6.3438 C8.9687,6.625 9,6.9375 9.1562,7.1562 L9.5625,7.7812 C9.75,8.0625 9.75,8.4688 9.5625,8.8125 L9.1562,9.4062 C9,9.6562 8.9687,9.9375 9.0625,10.2188 Z M11,17 C11,17.5312 11.4375,18 12,18 C12.5313,18 13,17.5312 13,17 C13,16.4375 12.5313,16 12,16 C11.4375,16 11,16.4375 11,17 Z M11.9062,6.0938 C11.9062,5.625 12.2812,5.25 12.75,5.25 C13.2187,5.25 13.625,5.625 13.625,6.0938 C13.625,6.5625 13.2187,6.9688 12.75,6.9688 C12.2812,6.9688 11.9062,6.5625 11.9062,6.0938 Z M12.5312,10.25 C12.4062,9.9688 12.5,9.6875 12.6875,9.4688 L16.0937,6.0625 L16.1875,6 C16.5,5.7812 16.875,5.8125 17.1562,6.0625 C17.4375,6.3438 17.4375,6.8125 17.1562,7.125 L13.75,10.5312 L13.6562,10.5938 C13.5625,10.6875 13.375,10.7188 13.2187,10.7188 C12.9062,10.7188 12.6562,10.5312 12.5312,10.25 Z M16.4062,10.625 C16.4062,10.1562 16.7812,9.75 17.25,9.75 C17.7187,9.75 18.0937,10.1562 18.0937,10.625 C18.0937,11.0938 17.7187,11.4688 17.25,11.4688 C16.7812,11.4688 16.4062,11.0938 16.4062,10.625 Z" id="🎨-Color"></path>
        </g>
    </g>
</svg>

<svg width="24" height="24" xmlns="http://www.w3.org/2000/svg"><path d="M2 18.969C2 20.625 3.313 22 4.969 22h8c1.656 0 3-1.375 3-3.031V17.03c0-.531-.469-1.031-1-1.031-.563 0-.969.5-1 1.031v1.938c0 .562-.438 1.031-1 1.031h-8C4.437 20 4 19.531 4 18.969V5.03c0-.562.438-1 .969-1H8c.531-.031.969-.437.969-1 0-.562-.438-.969-.969-1H4.969C3.312 2.031 2 3.375 2 5.031V18.97zM5 17c0 .531.438 1 1 1 .563 0 1-.469 1-1 0-.563-.438-1-1-1-.563 0-1 .438-1 1zm3 0c0 .531.469 1 1 1 .563 0 1-.469 1-1 0-.563-.438-1-1-1-.531 0-1 .438-1 1zm1.063-6.781c.062.25.28.5.562.594l.656.25a.994.994 0 01.625.843l.031.719c0 .281.157.563.376.719.25.156.53.219.812.125l.688-.188c.374-.094.75.063 1 .344l.437.563a.998.998 0 00.75.343c.281 0 .563-.125.719-.344l.469-.562c.25-.281.625-.438 1-.344l.687.188c.281.094.594.031.781-.125.25-.156.375-.438.407-.719l.062-.719c0-.375.25-.719.594-.844l.656-.25c.281-.093.469-.343.563-.593a.933.933 0 00-.094-.813l-.375-.594c-.219-.343-.219-.75 0-1.03l.375-.626c.156-.218.187-.531.093-.812-.093-.25-.28-.5-.562-.594l-.656-.25c-.344-.156-.594-.469-.594-.844l-.063-.718c-.03-.282-.156-.563-.406-.72-.187-.155-.5-.218-.781-.155l-.688.187c-.375.094-.75 0-1-.313l-.468-.562A.917.917 0 0015 2c-.281 0-.563.156-.75.375l-.438.563c-.25.312-.624.406-1 .312l-.687-.188c-.281-.062-.563 0-.813.157a.917.917 0 00-.374.719l-.032.718c-.031.375-.281.688-.625.844l-.656.25a.887.887 0 00-.563.594c-.093.281-.062.593.094.812l.406.625c.188.282.188.688 0 1.032l-.406.593a.932.932 0 00-.094.813zM11 17c0 .531.438 1 1 1 .531 0 1-.469 1-1 0-.563-.469-1-1-1-.563 0-1 .438-1 1zm.906-10.906a.84.84 0 01.844-.844c.469 0 .875.375.875.844a.894.894 0 01-.875.875c-.469 0-.844-.407-.844-.875zm.625 4.156c-.125-.281-.031-.563.156-.781l3.407-3.406.093-.063a.757.757 0 01.97.063c.28.28.28.75 0 1.062l-3.407 3.406-.094.063c-.094.094-.281.125-.437.125-.313 0-.563-.188-.688-.469zm3.875.375c0-.469.375-.875.844-.875s.844.406.844.875a.84.84 0 01-.844.844.84.84 0 01-.844-.844z" fill="#282D37" fill-rule="evenodd"/></svg>
